svg/fluentui-system-icons/ic_fluent_desktop_arrow_down_16_filled.svg

<svg width="16" height="16" viewBox="0 0 16 16" fill="none" xmlns="http://www.w3.org/2000/svg">
<path d="M15 5.5C15 7.98528 12.9853 10 10.5 10C8.01472 10 6 7.98528 6 5.5C6 3.01472 8.01472 1 10.5 1C12.9853 1 15 3.01472 15 5.5ZM10.146 7.85316L10.1486 7.85567C10.196 7.90256 10.2505 7.93802 10.3086 7.96206C10.3667 7.98615 10.4303 7.9996 10.497 7.99999L10.5 8L10.503 7.99999C10.5697 7.9996 10.6333 7.98615 10.6914 7.96206C10.7504 7.93766 10.8056 7.90149 10.8536 7.85355L12.8536 5.85355C13.0488 5.65829 13.0488 5.34171 12.8536 5.14645C12.6583 4.95118 12.3417 4.95118 12.1464 5.14645L11 6.29289V3.5C11 3.22386 10.7761 3 10.5 3C10.2239 3 10 3.22386 10 3.5V6.29289L8.85355 5.14645C8.65829 4.95118 8.34171 4.95118 8.14645 5.14645C7.95118 5.34171 7.95118 5.65829 8.14645 5.85355L10.146 7.85316ZM10.5 11C11.8301 11 13.0499 10.5279 14.001 9.74203V10.4971C14.001 11.3256 13.3294 11.9971 12.501 11.9971H10.0001V13H11.5001C11.7763 13 12.0001 13.2239 12.0001 13.5C12.0001 13.7761 11.7763 14 11.5001 14H4.49573C4.21959 14 3.99573 13.7761 3.99573 13.5C3.99573 13.2239 4.21959 13 4.49573 13H6.00012V11.9971H3.50098C2.67255 11.9971 2.00098 11.3256 2.00098 10.4971V3.5C2.00098 2.67157 2.67255 2 3.50098 2H6.25716C5.47182 2.95094 5 4.17037 5 5.5C5 8.53757 7.46243 11 10.5 11ZM9.00012 11.9971H7.00012V13H9.00012V11.9971Z" fill="#212121"/>
</svg>

<svg xmlns="http://www.w3.org/2000/svg" width="16" height="16"><path d="M15 5.5a4.5 4.5 0 1 1-9 0 4.5 4.5 0 0 1 9 0Zm-4.854 2.353.003.003a.498.498 0 0 0 .348.144h.006a.498.498 0 0 0 .35-.146l2-2a.5.5 0 0 0-.707-.708L11 6.293V3.5a.5.5 0 0 0-1 0v2.793L8.854 5.146a.5.5 0 1 0-.708.708l2 2ZM10.5 11c1.33 0 2.55-.472 3.501-1.258v.755a1.5 1.5 0 0 1-1.5 1.5h-2.5V13h1.5a.5.5 0 1 1 0 1H4.495a.5.5 0 0 1 0-1H6v-1.003H3.501a1.5 1.5 0 0 1-1.5-1.5V3.5a1.5 1.5 0 0 1 1.5-1.5h2.756a5.5 5.5 0 0 0 4.243 9Zm-1.5.997H7V13h2v-1.003Z"/></svg>
